X:335
T: Jack Sweeney's #2
S: "Johnny O'Leary of Sliabh Luachra" (#270)
Z: B.Black
N: version of "Mairi's Wedding"
L: 1/8
M: 2/4
Q: 270
R: polka
K: Edor
A/F/|E2 EF|AB c2|BA FA|cB ce|
E2 EF|AB ce/c/|BA FA|1 E2 E :|2 E2 E2||
e2 ef|ed cd/c/|BA FA|cB cB/c/|
e>d ef|ed cd/c/|BA FA|1 E2 E2 :|2 E2 E||
